X:285
T:The Hangman's Rope
R:hornpipe
M:4/4
L:1/8
K:Gmaj
|:(3DEF|G2BG DGBd| g2fg d3e| f2fg fdcB| c2cd cAFA|
G2BG DGBd| g2fg d3e|fefg fdAc| B2G2 G2:|
|:Bc|dg~g2 dgBg| dg~g2 a2ga| bgaf gdBd| cBAG A2Bc|
dg~g2 dgBg| dg~g2 a2ga| bgag ABcd|1 B2G2 G2:|2 B2G2 G4||

